; generated by Slic3r 1.2.9 on 2017-01-15 at 14:50:38

; external perimeters extrusion width = 0.50mm
; perimeters extrusion width = 0.85mm
; infill extrusion width = 1.98mm
; solid infill extrusion width = 0.85mm
; top infill extrusion width = 0.85mm
; support material extrusion width = 0.50mm

M190 S65 ; set bed temperature
M104 S210 ; set temperature
G28 ; home all axes
G1 Z5 F5000 ; lift nozzle

M109 S210 ; wait for temperature to be reached
G21 ; set units to millimeters
G90 ; use absolute coordinates
M82 ; use absolute distances for extrusion
G92 E0
M106 S153
G1 Z-0.150 F3600.000
G1 E-2.00000 F2400.00000
G92 E0
G1 X92.097 Y85.851 F3600.000
G1 E2.00000 F2400.00000
G1 X94.575 Y83.637 E2.09231 F1200.000
G1 X97.509 Y82.076 E2.18462
G1 X100.730 Y81.260 E2.27693
G1 X102.500 Y81.146 E2.32620
G1 X142.500 Y81.146 E3.43731
G1 X145.799 Y81.545 E3.52962
G1 X148.908 Y82.717 E3.62193 F1200.000
G1 X151.649 Y84.597 E3.71423
G1 X153.863 Y87.075 E3.80654
G1 X155.424 Y90.009 E3.89885
G1 X156.240 Y93.230 E3.99116
G1 X156.354 Y95.000 E4.04043
G1 X156.354 Y135.000 E5.15154
G1 X155.955 Y138.299 E5.24385
G1 X154.783 Y141.408 E5.33616
G1 X152.903 Y144.149 E5.42847
G1 X150.425 Y146.363 E5.52078
G1 X147.491 Y147.924 E5.61309
G1 X144.270 Y148.740 E5.70540
G1 X142.500 Y148.854 E5.75467
G1 X102.500 Y148.854 E6.86578
G1 X99.201 Y148.455 E6.95809
G1 X96.092 Y147.283 E7.05040
G1 X93.351 Y145.403 E7.14270
G1 X91.137 Y142.925 E7.23501
G1 X89.576 Y139.991 E7.32732
G1 X88.760 Y136.770 E7.41963
G1 X88.646 Y135.000 E7.46890
G1 X88.646 Y95.000 E8.58001
G1 X89.045 Y91.701 E8.67232
G1 X90.217 Y88.592 E8.76463
G1 X92.054 Y85.913 E8.85486
G1 X92.759 Y86.323 F3600.000
G1 X92.873 Y86.162 E8.86034 F1200.000
G1 X95.333 Y84.072 E8.94998
G1 X98.229 Y82.649 E9.03963
G1 X102.500 Y81.931 E9.15993
G1 X142.500 Y81.931 E10.27104
G1 X145.703 Y82.330 E10.36068
G1 X148.710 Y83.501 E10.45033 F1200.000
G1 X151.338 Y85.373 E10.53997
G1 X153.428 Y87.833 E10.62962
G1 X154.851 Y90.729 E10.71926
G1 X155.569 Y95.000 E10.83956
G1 X155.569 Y135.000 E11.95067
G1 X155.170 Y138.203 E12.04031
G1 X153.999 Y141.210 E12.12996
G1 X152.127 Y143.838 E12.21960
G1 X149.667 Y145.928 E12.30925
G1 X146.771 Y147.351 E12.39889
G1 X142.500 Y148.069 E12.51919
G1 X102.500 Y148.069 E13.63030
G1 X99.297 Y147.670 E13.71995
G1 X96.290 Y146.499 E13.80959
G1 X93.662 Y144.627 E13.89923
G1 X91.572 Y142.167 E13.98888
G1 X90.149 Y139.271 E14.07852
G1 X89.431 Y135.000 E14.19882
G1 X89.431 Y95.000 E15.30993
G1 X89.830 Y91.797 E15.39958
G1 X91.001 Y88.790 E15.48922
G1 X92.715 Y86.384 E15.57130
G1 X93.410 Y86.806 F3600.000
G1 X93.649 Y86.483 E15.58244 F1200.000
G1 X96.087 Y84.524 E15.66934
G1 X98.942 Y83.244 E15.75624
G1 X102.500 Y82.717 E15.85616
G1 X142.500 Y82.717 E16.96727
G1 X145.603 Y83.115 E17.05417
G1 X148.504 Y84.284 E17.14107 F1200.000
G1 X151.017 Y86.149 E17.22797
G1 X152.976 Y88.587 E17.31487
G1 X154.256 Y91.442 E17.40176
G1 X154.783 Y95.000 E17.50168
G1 X154.783 Y135.000 E18.61279
G1 X154.385 Y138.103 E18.69969
G1 X153.216 Y141.004 E18.78659
G1 X151.351 Y143.517 E18.87349
G1 X148.913 Y145.476 E18.96039
G1 X146.058 Y146.756 E19.04729
G1 X142.500 Y147.283 E19.14721
G1 X102.500 Y147.283 E20.25832
G1 X99.397 Y146.885 E20.34522
G1 X96.496 Y145.716 E20.43211
G1 X93.983 Y143.851 E20.51901
G1 X92.024 Y141.413 E20.60591
G1 X90.744 Y138.558 E20.69281
G1 X90.217 Y135.000 E20.79273
G1 X90.217 Y95.000 E21.90384
G1 X90.615 Y91.897 E21.99074
G1 X91.784 Y88.996 E22.07764
G1 X93.365 Y86.866 E22.15131
G1 X94.048 Y87.301 F3600.000
G1 X94.423 Y86.817 E22.16831 F1200.000
G1 X96.838 Y84.993 E22.25237
G1 X99.645 Y83.862 E22.33643
G1 X102.500 Y83.502 E22.41637
G1 X142.500 Y83.502 E23.52748
G1 X145.500 Y83.900 E23.61155
G1 X148.292 Y85.068 E23.69561 F1200.000
G1 X150.683 Y86.923 E23.77967
G1 X152.507 Y89.338 E23.86374
G1 X153.638 Y92.145 E23.94780
G1 X153.998 Y95.000 E24.02774
G1 X153.998 Y135.000 E25.13885
G1 X153.600 Y138.000 E25.22291
G1 X152.432 Y140.792 E25.30697
G1 X150.577 Y143.183 E25.39104
G1 X148.162 Y145.007 E25.47510
G1 X145.355 Y146.138 E25.55916
G1 X142.500 Y146.498 E25.63910
G1 X102.500 Y146.498 E26.75021
G1 X99.500 Y146.100 E26.83427
G1 X96.708 Y144.932 E26.91834
G1 X94.317 Y143.077 E27.00240
G1 X92.493 Y140.662 E27.08646
G1 X91.362 Y137.855 E27.17053
G1 X91.002 Y135.000 E27.25046
G1 X91.002 Y95.000 E28.36158
G1 X91.400 Y92.000 E28.44564
G1 X92.568 Y89.208 E28.52970
G1 X94.002 Y87.360 E28.59468
G1 X94.671 Y87.808 F3600.000
G1 X95.195 Y87.164 E28.61775 F1200.000
G1 X97.583 Y85.483 E28.69888
G1 X100.337 Y84.508 E28.78001
G1 X102.500 Y84.288 E28.84042
G1 X142.500 Y84.288 E29.95153
G1 X145.393 Y84.686 E30.03266
G1 X148.072 Y85.851 E30.11378 F1200.000
G1 X150.336 Y87.695 E30.19491
G1 X152.017 Y90.083 E30.27604
G1 X152.992 Y92.837 E30.35717
G1 X153.212 Y95.000 E30.41757
G1 X153.212 Y135.000 E31.52868
G1 X152.814 Y137.893 E31.60981
G1 X151.649 Y140.572 E31.69094
G1 X149.805 Y142.836 E31.77207
G1 X147.417 Y144.517 E31.85319
G1 X144.663 Y145.492 E31.93432
G1 X142.500 Y145.712 E31.99473
G1 X102.500 Y145.712 E33.10584
G1 X99.607 Y145.314 E33.18697
G1 X96.928 Y144.149 E33.26810
G1 X94.664 Y142.305 E33.34922
G1 X92.983 Y139.917 E33.43035
G1 X92.008 Y137.163 E33.51148
G1 X91.788 Y135.000 E33.57188
G1 X91.788 Y95.000 E34.68300
G1 X92.186 Y92.107 E34.76412
G1 X93.351 Y89.428 E34.84525
G1 X94.623 Y87.866 E34.90122
G1 X95.276 Y88.329 F3600.000
G1 X95.966 Y87.527 E34.93061 F1200.000
G1 X98.323 Y85.995 E35.00870
G1 X101.015 Y85.185 E35.08678
G1 X102.500 Y85.073 E35.12816
G1 X142.500 Y85.073 E36.23927
G1 X145.283 Y85.471 E36.31735
G1 X147.842 Y86.633 E36.39543 F1200.000
G1 X149.973 Y88.466 E36.47352
G1 X151.505 Y90.823 E36.55160
G1 X152.315 Y93.515 E36.62968
G1 X152.427 Y95.000 E36.67106
G1 X152.427 Y135.000 E37.78217
G1 X152.029 Y137.783 E37.86025
G1 X150.867 Y140.342 E37.93834
G1 X149.034 Y142.473 E38.01642
G1 X146.677 Y144.005 E38.09450
G1 X143.985 Y144.815 E38.17258
G1 X142.500 Y144.927 E38.21396
G1 X102.500 Y144.927 E39.32507
G1 X99.717 Y144.529 E39.40316
G1 X97.158 Y143.367 E39.48124
G1 X95.027 Y141.534 E39.55932
G1 X93.495 Y139.177 E39.63740
G1 X92.685 Y136.485 E39.71549
G1 X92.573 Y135.000 E39.75686
G1 X92.573 Y95.000 E40.86798
G1 X92.971 Y92.217 E40.94606
G1 X94.133 Y89.658 E41.02414
G1 X95.227 Y88.386 E41.07075
G1 X95.860 Y88.863 F3600.000
G1 X96.734 Y87.906 E41.10673 F1200.000
G1 X99.055 Y86.532 E41.18164
G1 X102.500 Y85.858 E41.27916
G1 X142.500 Y85.858 E42.39027
G1 X145.167 Y86.256 E42.46518
G1 X147.603 Y87.415 E42.54010 F1200.000
G1 X149.594 Y89.234 E42.61501
G1 X150.968 Y91.555 E42.68993
G1 X151.642 Y95.000 E42.78744
G1 X151.642 Y135.000 E43.89855
G1 X151.244 Y137.667 E43.97347
G1 X150.085 Y140.103 E44.04838
G1 X148.266 Y142.094 E44.12329
G1 X145.945 Y143.468 E44.19821
G1 X142.500 Y144.142 E44.29572
G1 X102.500 Y144.142 E45.40683
G1 X99.833 Y143.744 E45.48175
G1 X97.397 Y142.585 E45.55666
G1 X95.406 Y140.766 E45.63158
G1 X94.032 Y138.445 E45.70649
G1 X93.358 Y135.000 E45.80400
G1 X93.358 Y95.000 E46.91512
G1 X93.756 Y92.333 E46.99003
G1 X94.915 Y89.897 E47.06494
G1 X95.810 Y88.918 E47.10179
G1 X96.419 Y89.409 F3600.000
G1 X97.499 Y88.306 E47.14468 F1200.000
G1 X99.777 Y87.100 E47.21628
G1 X102.500 Y86.644 E47.29297
G1 X142.500 Y86.644 E48.40408
G1 X145.047 Y87.041 E48.47568
G1 X147.351 Y88.196 E48.54729 F1200.000
G1 X149.194 Y89.999 E48.61889
G1 X150.400 Y92.277 E48.69050
G1 X150.856 Y95.000 E48.76719
G1 X150.856 Y135.000 E49.87830
G1 X150.459 Y137.547 E49.94990
G1 X149.304 Y139.851 E50.02151
G1 X147.501 Y141.694 E50.09311
G1 X145.223 Y142.900 E50.16472
G1 X142.500 Y143.356 E50.24140
G1 X102.500 Y143.356 E51.35251
G1 X99.953 Y142.959 E51.42412
G1 X97.649 Y141.804 E51.49572
G1 X95.806 Y140.001 E51.56733
G1 X94.600 Y137.723 E51.63893
G1 X94.144 Y135.000 E51.71562
G1 X94.144 Y95.000 E52.82673
G1 X94.541 Y92.453 E52.89834
G1 X95.696 Y90.149 E52.96994
G1 X96.367 Y89.463 E52.99658
G1 X96.948 Y89.968 F3600.000
G1 X98.260 Y88.728 E53.04672 F1200.000
G1 X100.487 Y87.702 E53.11486
G1 X102.500 Y87.429 E53.17128
G1 X142.500 Y87.429 E54.28239
G1 X144.920 Y87.827 E54.35053
G1 X147.087 Y88.977 E54.41866 F1200.000
G1 X148.772 Y90.760 E54.48680
G1 X149.798 Y92.987 E54.55493
G1 X150.071 Y95.000 E54.61135
G1 X150.071 Y135.000 E55.72246
G1 X149.673 Y137.420 E55.79060
G1 X148.523 Y139.587 E55.85873
G1 X146.740 Y141.272 E55.92687
G1 X144.513 Y142.298 E55.99501
G1 X142.500 Y142.571 E56.05142
G1 X102.500 Y142.571 E57.16253
G1 X100.080 Y142.173 E57.23067
G1 X97.913 Y141.023 E57.29881
G1 X96.228 Y139.240 E57.36694
G1 X95.202 Y137.013 E57.43508
G1 X94.929 Y135.000 E57.49150
G1 X94.929 Y95.000 E58.60261
G1 X95.327 Y92.580 E58.67074
G1 X96.477 Y90.413 E58.73888
G1 X96.893 Y90.020 E58.75478
G1 X97.438 Y90.537 F3600.000
G1 X99.015 Y89.178 E58.81261 F1200.000
G1 X101.181 Y88.344 E58.87709
G1 X102.500 Y88.215 E58.91391
G1 X142.500 Y88.215 E60.02502
G1 X144.787 Y88.612 E60.08950
G1 X146.806 Y89.756 E60.15398 F1200.000
G1 X148.322 Y91.515 E60.21846
G1 X149.156 Y93.681 E60.28294
G1 X149.285 Y95.000 E60.31975
G1 X149.285 Y135.000 E61.43086
G1 X148.888 Y137.287 E61.49534
G1 X147.744 Y139.306 E61.55982
G1 X145.985 Y140.822 E61.62430
G1 X143.819 Y141.656 E61.68878
G1 X142.500 Y141.785 E61.72560
G1 X102.500 Y141.785 E62.83671
G1 X100.213 Y141.388 E62.90119
G1 X98.194 Y140.244 E62.96567
G1 X96.678 Y138.485 E63.03015
G1 X95.844 Y136.319 E63.09463
G1 X95.715 Y135.000 E63.13145
G1 X95.715 Y95.000 E64.24256
G1 X96.112 Y92.713 E64.30704
G1 X97.256 Y90.694 E64.37152
G1 X97.381 Y90.586 E64.37609
G1 E62.37609 F2400.00000
G92 E0
G1 X138.151 Y128.651 F3600.000
G1 E2.00000 F2400.00000
G1 X126.849 Y128.651 E2.31396 F1200.000
G1 X126.849 Y118.849 E2.58625
G1 X138.151 Y118.849 E2.90021
G1 X138.151 Y128.576 E3.17042
G1 X137.366 Y127.866 F3600.000
G1 X127.634 Y127.866 E3.44075 F1200.000
G1 X127.634 Y124.634 E3.53052
G1 X137.366 Y124.634 E3.80084
G1 X137.366 Y127.791 E3.88853
G1 X136.750 Y127.250 F3600.000
G1 X128.250 Y127.250 E4.02272 F1200.000
G1 X128.250 Y125.250 E4.05429
G1 X136.750 Y125.250 E4.18847
G1 X136.750 Y127.175 E4.21886
G1 X136.750 Y127.750 F3600.000
G1 E2.21886 F2400.00000
G92 E0
G1 X137.366 Y122.866 F3600.000
G1 E2.00000 F2400.00000
G1 X127.634 Y122.866 E2.27033 F1200.000
G1 X127.634 Y119.634 E2.36010
G1 X137.366 Y119.634 E2.63042
G1 X137.366 Y122.791 E2.71811
G1 X136.750 Y122.250 F3600.000
G1 X128.250 Y122.250 E2.85230 F1200.000
G1 X128.250 Y120.250 E2.88387
G1 X136.750 Y120.250 E3.01805
G1 X136.750 Y122.175 E3.04844
G1 X136.750 Y122.750 F3600.000
G1 E1.04844 F2400.00000
G92 E0
G1 X138.151 Y109.651 F3600.000
G1 E2.00000 F2400.00000
G1 X126.849 Y109.651 E2.31396 F1200.000
G1 X126.849 Y104.849 E2.44736
G1 X138.151 Y104.849 E2.76132
G1 X138.151 Y109.576 E2.89264
G1 X137.366 Y108.866 F3600.000
G1 X127.634 Y108.866 E3.16297 F1200.000
G1 X127.634 Y105.634 E3.25274
G1 X137.366 Y105.634 E3.52307
G1 X137.366 Y108.791 E3.61075
G1 X136.750 Y108.250 F3600.000
G1 X128.250 Y108.250 E3.74494 F1200.000
G1 X128.250 Y106.250 E3.77651
G1 X136.750 Y106.250 E3.91070
G1 X136.750 Y108.175 E3.94108
G1 X136.750 Y108.750 F3600.000
G1 E1.94108 F2400.00000
G92 E0
G1 X120.151 Y109.651 F3600.000
G1 E2.00000 F2400.00000
G1 X108.849 Y109.651 E2.31396 F1200.000
G1 X108.849 Y104.849 E2.44736
G1 X120.151 Y104.849 E2.76132
G1 X120.151 Y109.576 E2.89264
G1 X119.366 Y108.866 F3600.000
G1 X109.634 Y108.866 E3.16297 F1200.000
G1 X109.634 Y105.634 E3.25274
G1 X119.366 Y105.634 E3.52307
G1 X119.366 Y108.791 E3.61075
G1 X118.750 Y108.250 F3600.000
G1 X110.250 Y108.250 E3.74494 F1200.000
G1 X110.250 Y106.250 E3.77651
G1 X118.750 Y106.250 E3.91070
G1 X118.750 Y108.175 E3.94108
G1 X118.750 Y108.750 F3600.000
G1 E1.94108 F2400.00000
G92 E0
G1 X120.151 Y118.849 F3600.000
G1 E2.00000 F2400.00000
G1 X120.151 Y128.651 E2.27229 F1200.000
G1 X108.849 Y128.651 E2.58625
G1 X108.849 Y118.849 E2.85855
G1 X120.076 Y118.849 E3.17042
G1 E1.17042 F2400.00000
G92 E0
G1 X119.366 Y124.634 F3600.000
G1 E2.00000 F2400.00000
G1 X119.366 Y127.866 E2.08977 F1200.000
G1 X109.634 Y127.866 E2.36010
G1 X109.634 Y124.634 E2.44987
G1 X119.291 Y124.634 E2.71811
G1 X118.750 Y125.250 F3600.000
G1 X118.750 Y127.250 E2.74968 F1200.000
G1 X110.250 Y127.250 E2.88387
G1 X110.250 Y125.250 E2.91544
G1 X118.675 Y125.250 E3.04844
G1 X119.250 Y125.250 F3600.000
G1 E1.04844 F2400.00000
G92 E0
G1 X119.366 Y122.866 F3600.000
G1 E2.00000 F2400.00000
G1 X109.634 Y122.866 E2.27033 F1200.000
G1 X109.634 Y119.634 E2.36010
G1 X119.366 Y119.634 E2.63042
G1 X119.366 Y122.791 E2.71811
G1 X118.750 Y122.250 F3600.000
G1 X110.250 Y122.250 E2.85230 F1200.000
G1 X110.250 Y120.250 E2.88387
G1 X118.750 Y120.250 E3.01805
G1 X118.750 Y122.175 E3.04844
G1 X118.750 Y122.750 F3600.000
G1 E1.04844 F2400.00000
G92 E0
G1 X104.151 Y133.349 F3600.000
G1 E2.00000 F2400.00000
G1 X104.151 Y96.651 E3.01937 F1200.000
G1 X140.849 Y96.651 E4.03875
G1 X140.849 Y133.349 E5.05812
G1 X104.226 Y133.349 E6.07541
G1 X103.366 Y134.134 F3600.000
G1 X103.366 Y95.866 E7.13842 F1200.000
G1 X141.634 Y95.866 E8.20143
G1 X141.634 Y134.134 E9.26443
G1 X103.441 Y134.134 E10.32536
G1 X102.750 Y134.750 F3600.000
G1 X102.750 Y95.250 E10.94892 F1200.000
G1 X142.250 Y95.250 E11.57248
G1 X142.250 Y134.750 E12.19604
G1 X102.825 Y134.750 E12.81842
G1 X103.000 Y134.317 F3600.000
G1 E10.81842 F2400.00000
G92 E0
G1 X109.241 Y123.750 F3600.000
G1 E2.00000 F2400.00000
G1 X119.759 Y123.750 E2.60424 F1200.000
G1 E0.60424 F2400.00000
G92 E0
G1 X120.632 Y121.552 F3600.000
G1 E2.00000 F2400.00000
G1 X126.368 Y127.287 E2.22773 F1200.000
G1 X126.368 Y126.165 E2.25924
G1 X120.632 Y120.429 E2.48697
G1 X120.632 Y119.307 E2.51849
G1 X126.368 Y125.042 E2.74621
G1 X126.368 Y123.920 E2.77773
G1 X112.580 Y110.132 E3.32515
G1 X113.703 Y110.132 E3.35666
G1 X126.368 Y122.797 E3.85951
G1 X126.368 Y121.674 E3.89102
G1 X114.826 Y110.132 E4.34929
G1 X115.948 Y110.132 E4.38081
G1 X126.368 Y120.552 E4.79451
G1 X126.368 Y119.429 E4.82603
G1 X117.071 Y110.132 E5.19515
G1 X118.194 Y110.132 E5.22667
G1 X126.429 Y118.368 E5.55366
G1 X127.552 Y118.368 E5.58517
G1 X119.316 Y110.132 E5.91216
G1 X120.439 Y110.132 E5.94368
G1 X128.674 Y118.368 E6.27066
G1 X129.797 Y118.368 E6.30218
G1 X120.632 Y109.203 E6.66606
G1 X120.632 Y108.080 E6.69758
G1 X130.920 Y118.368 E7.10603
G1 X132.042 Y118.368 E7.13754
G1 X120.632 Y106.958 E7.59057
G1 X120.632 Y105.835 E7.62209
G1 X133.165 Y118.368 E8.11968
G1 E6.11968 F2400.00000
G92 E0
G1 X136.533 Y118.368 F3600.000
G1 E2.00000 F2400.00000
G1 X128.297 Y110.132 E2.32699 F1200.000
G1 E0.32699 F2400.00000
G92 E0
G1 X138.632 Y105.873 F3600.000
G1 E2.00000 F2400.00000
G1 X140.368 Y107.609 E2.06891 F1200.000
G1 X140.368 Y108.732 E2.10043
G1 X138.632 Y106.996 E2.16933
G1 X138.632 Y108.119 E2.20085
G1 X140.368 Y109.854 E2.26976
G1 X140.368 Y110.977 E2.30128
G1 X138.632 Y109.241 E2.37019
G1 X138.401 Y110.132 E2.39603
G1 X140.368 Y112.099 E2.47414
G1 X140.368 Y113.222 E2.50566
G1 X137.278 Y110.132 E2.62833
G1 X136.155 Y110.132 E2.65985
G1 X140.368 Y114.345 E2.82710
G1 X140.368 Y115.467 E2.85862
G1 X135.033 Y110.132 E3.07044
G1 X133.910 Y110.132 E3.10196
G1 X140.368 Y116.590 E3.35836
G1 X140.368 Y117.712 E3.38988
G1 X132.788 Y110.132 E3.69085
G1 X131.665 Y110.132 E3.72236
G1 X140.368 Y118.835 E4.06790
G1 X140.368 Y119.958 E4.09942
G1 X138.632 Y118.222 E4.16833
G1 X137.655 Y118.368 E4.19606
G1 X129.420 Y110.132 E4.52305
G1 X130.542 Y110.132 E4.55457
G1 X138.778 Y118.368 E4.88155
G1 X138.632 Y119.345 E4.90929
G1 X140.368 Y121.080 E4.97820
G1 X140.368 Y122.203 E5.00971
G1 X138.632 Y120.467 E5.07862
G1 X138.632 Y121.590 E5.11014
G1 X140.368 Y123.326 E5.17905
G1 X140.368 Y124.448 E5.21057
G1 X138.632 Y122.713 E5.27947
G1 X138.632 Y123.835 E5.31099
G1 X140.368 Y125.571 E5.37990
G1 X140.368 Y126.693 E5.41142
G1 X138.632 Y124.958 E5.48033
G1 X138.632 Y126.080 E5.51184
G1 X140.368 Y127.816 E5.58075
G1 X140.368 Y128.939 E5.61227
G1 X138.632 Y127.203 E5.68118
G1 X138.632 Y128.326 E5.71270
G1 X140.368 Y130.061 E5.78160
G1 X140.368 Y131.184 E5.81312
G1 X138.316 Y129.132 E5.89458
G1 X137.194 Y129.132 E5.92610
G1 X140.368 Y132.306 E6.05213
G1 X139.806 Y132.868 E6.07441
G1 X136.071 Y129.132 E6.22273
