; generated by Slic3r 1.2.9 on 2017-01-15 at 14:50:25

; external perimeters extrusion width = 0.50mm
; perimeters extrusion width = 0.84mm
; infill extrusion width = 0.84mm
; solid infill extrusion width = 0.84mm
; top infill extrusion width = 0.84mm
; support material extrusion width = 0.50mm

M190 S65 ; set bed temperature
M104 S210 ; set temperature
G28 ; home all axes
G1 Z5 F5000 ; lift nozzle

M109 S210 ; wait for temperature to be reached
G21 ; set units to millimeters
G90 ; use absolute coordinates
M82 ; use absolute distances for extrusion
G92 E0
M106 S153
G1 Z-0.100 F4800.000
G1 E-2.00000 F2400.00000
G92 E0
G1 X94.036 Y86.649 F4800.000
G1 E2.00000 F2400.00000
G1 X96.463 Y84.756 E2.08549 F1800.000
G1 X99.295 Y83.550 E2.17098
G1 X102.500 Y83.110 E2.26086
G1 X142.500 Y83.110 E3.37197
G1 X145.552 Y83.508 E3.45746
G1 X148.399 Y84.676 E3.54296 F1800.000
G1 X150.851 Y86.536 E3.62845
G1 X152.744 Y88.963 E3.71394
G1 X153.950 Y91.795 E3.79943
G1 X154.390 Y95.000 E3.88931
G1 X154.390 Y135.000 E5.00042
G1 X153.992 Y138.052 E5.08591
G1 X152.824 Y140.899 E5.17141
G1 X150.964 Y143.351 E5.25690
G1 X148.537 Y145.244 E5.34239
G1 X145.705 Y146.450 E5.42788
G1 X142.500 Y146.890 E5.51776
G1 X102.500 Y146.890 E6.62887
G1 X99.448 Y146.492 E6.71436
G1 X96.601 Y145.324 E6.79986
G1 X94.149 Y143.464 E6.88535
G1 X92.256 Y141.037 E6.97084
G1 X91.050 Y138.205 E7.05633
G1 X90.610 Y135.000 E7.14621
G1 X90.610 Y95.000 E8.25732
G1 X91.008 Y91.948 E8.34281
G1 X92.176 Y89.101 E8.42831
G1 X93.991 Y86.708 E8.51171
G1 X94.571 Y87.070 F4800.000
G1 X94.681 Y86.931 E8.51663 F1800.000
G1 X97.087 Y85.154 E8.59973
G1 X99.877 Y84.075 E8.68283
G1 X102.500 Y83.764 E8.75620
G1 X142.500 Y83.764 E9.86731
G1 X145.465 Y84.162 E9.95041
G1 X148.220 Y85.329 E10.03350 F1800.000
G1 X150.569 Y87.181 E10.11660
G1 X152.346 Y89.587 E10.19970
G1 X153.425 Y92.377 E10.28279
G1 X153.736 Y95.000 E10.35617
G1 X153.736 Y135.000 E11.46728
G1 X153.338 Y137.965 E11.55038
G1 X152.171 Y140.720 E11.63347
G1 X150.319 Y143.069 E11.71657
G1 X147.913 Y144.846 E11.79966
G1 X145.123 Y145.925 E11.88276
G1 X142.500 Y146.236 E11.95614
G1 X102.500 Y146.236 E13.06725
G1 X99.535 Y145.838 E13.15034
G1 X96.780 Y144.671 E13.23344
G1 X94.431 Y142.819 E13.31653
G1 X92.654 Y140.413 E13.39963
G1 X91.575 Y137.623 E13.48273
G1 X91.264 Y135.000 E13.55610
G1 X91.264 Y95.000 E14.66721
G1 X91.662 Y92.035 E14.75031
G1 X92.829 Y89.280 E14.83340
G1 X94.525 Y87.129 E14.90950
G1 X95.096 Y87.502 F4800.000
G1 X95.324 Y87.224 E14.91949 F1800.000
G1 X97.707 Y85.566 E15.00012
G1 X100.451 Y84.619 E15.08075
G1 X102.500 Y84.419 E15.13795
G1 X142.500 Y84.419 E16.24906
G1 X145.375 Y84.817 E16.32968
G1 X148.034 Y85.981 E16.41031 F1800.000
G1 X150.276 Y87.824 E16.49094
G1 X151.934 Y90.207 E16.57157
G1 X152.881 Y92.951 E16.65220
G1 X153.081 Y95.000 E16.70940
G1 X153.081 Y135.000 E17.82051
G1 X152.683 Y137.875 E17.90113
G1 X151.519 Y140.534 E17.98176
G1 X149.676 Y142.776 E18.06239
G1 X147.293 Y144.434 E18.14302
G1 X144.549 Y145.381 E18.22365
G1 X142.500 Y145.581 E18.28085
G1 X102.500 Y145.581 E19.39196
G1 X99.625 Y145.183 E19.47258
G1 X96.966 Y144.019 E19.55321
G1 X94.724 Y142.176 E19.63384
G1 X93.066 Y139.793 E19.71447
G1 X92.119 Y137.049 E19.79510
G1 X91.919 Y135.000 E19.85230
G1 X91.919 Y95.000 E20.96341
G1 X92.317 Y92.125 E21.04404
G1 X93.481 Y89.466 E21.12466
G1 X95.048 Y87.559 E21.19321
G1 X95.608 Y87.942 F4800.000
G1 X95.966 Y87.527 E21.20845 F1800.000
G1 X98.323 Y85.995 E21.28653
G1 X101.015 Y85.185 E21.36462
G1 X102.500 Y85.073 E21.40599
G1 X142.500 Y85.073 E22.51711
G1 X145.283 Y85.471 E22.59519
G1 X147.842 Y86.633 E22.67327 F1800.000
G1 X149.973 Y88.466 E22.75135
G1 X151.505 Y90.823 E22.82944
G1 X152.315 Y93.515 E22.90752
G1 X152.427 Y95.000 E22.94890
G1 X152.427 Y135.000 E24.06001
G1 X152.029 Y137.783 E24.13809
G1 X150.867 Y140.342 E24.21617
G1 X149.034 Y142.473 E24.29426
G1 X146.677 Y144.005 E24.37234
G1 X143.985 Y144.815 E24.45042
G1 X142.500 Y144.927 E24.49180
G1 X102.500 Y144.927 E25.60291
G1 X99.717 Y144.529 E25.68099
G1 X97.158 Y143.367 E25.75908
G1 X95.027 Y141.534 E25.83716
G1 X93.495 Y139.177 E25.91524
G1 X92.685 Y136.485 E25.99332
G1 X92.573 Y135.000 E26.03470
G1 X92.573 Y95.000 E27.14581
G1 X92.971 Y92.217 E27.22390
G1 X94.133 Y89.658 E27.30198
G1 X95.559 Y87.999 E27.36274
G1 X96.107 Y88.394 F4800.000
G1 X96.606 Y87.842 E27.38341 F1800.000
G1 X98.933 Y86.441 E27.45886
G1 X102.500 Y85.728 E27.55989
G1 X142.500 Y85.728 E28.67100
G1 X145.187 Y86.125 E28.74646
G1 X147.643 Y87.285 E28.82191 F1800.000
G1 X149.658 Y89.106 E28.89736
G1 X151.059 Y91.433 E28.97281
G1 X151.772 Y95.000 E29.07384
G1 X151.772 Y135.000 E30.18496
G1 X151.375 Y137.687 E30.26041
G1 X150.215 Y140.143 E30.33586
G1 X148.394 Y142.158 E30.41131
G1 X146.067 Y143.559 E30.48676
G1 X142.500 Y144.272 E30.58779
G1 X102.500 Y144.272 E31.69891
G1 X99.813 Y143.875 E31.77436
G1 X97.357 Y142.715 E31.84981
G1 X95.342 Y140.894 E31.92526
G1 X93.941 Y138.567 E32.00071
G1 X93.228 Y135.000 E32.10175
G1 X93.228 Y95.000 E33.21286
G1 X93.625 Y92.313 E33.28831
G1 X94.785 Y89.857 E33.36376
G1 X96.057 Y88.449 E33.41646
G1 X96.590 Y88.855 F4800.000
G1 X97.244 Y88.170 E33.44276 F1800.000
G1 X99.538 Y86.907 E33.51549
G1 X102.500 Y86.382 E33.59906
G1 X142.500 Y86.382 E34.71017
G1 X145.088 Y86.780 E34.78290
G1 X147.437 Y87.936 E34.85562 F1800.000
G1 X149.330 Y89.744 E34.92835
G1 X150.593 Y92.038 E35.00107
G1 X151.118 Y95.000 E35.08464
G1 X151.118 Y135.000 E36.19575
G1 X150.720 Y137.588 E36.26848
G1 X149.564 Y139.937 E36.34120
G1 X147.756 Y141.830 E36.41393
G1 X145.462 Y143.093 E36.48665
G1 X142.500 Y143.618 E36.57022
G1 X102.500 Y143.618 E37.68133
G1 X99.912 Y143.220 E37.75406
G1 X97.563 Y142.064 E37.82678
G1 X95.670 Y140.256 E37.89951
G1 X94.407 Y137.962 E37.97223
G1 X93.882 Y135.000 E38.05580
G1 X93.882 Y95.000 E39.16691
G1 X94.280 Y92.412 E39.23964
G1 X95.436 Y90.063 E39.31236
G1 X96.539 Y88.909 E39.35670
G1 X97.054 Y89.326 F4800.000
G1 X97.880 Y88.514 E39.38887 F1800.000
G1 X100.134 Y87.396 E39.45877
G1 X102.500 Y87.037 E39.52524
G1 X142.500 Y87.037 E40.63635
G1 X144.985 Y87.434 E40.70625
G1 X147.221 Y88.587 E40.77614 F1800.000
G1 X148.986 Y90.380 E40.84603
G1 X150.104 Y92.634 E40.91592
G1 X150.463 Y95.000 E40.98240
G1 X150.463 Y135.000 E42.09351
G1 X150.066 Y137.485 E42.16340
G1 X148.913 Y139.721 E42.23329
G1 X147.120 Y141.486 E42.30319
G1 X144.866 Y142.604 E42.37308
G1 X142.500 Y142.963 E42.43955
G1 X102.500 Y142.963 E43.55067
G1 X100.015 Y142.566 E43.62056
G1 X97.779 Y141.413 E43.69045
G1 X96.014 Y139.620 E43.76034
G1 X94.896 Y137.366 E43.83023
G1 X94.537 Y135.000 E43.89671
G1 X94.537 Y95.000 E45.00782
G1 X94.934 Y92.515 E45.07771
G1 X96.087 Y90.279 E45.14760
G1 X97.001 Y89.379 E45.18324
G1 X97.496 Y89.807 F4800.000
G1 X98.512 Y88.875 E45.22154 F1800.000
G1 X100.721 Y87.911 E45.28848
G1 X102.500 Y87.691 E45.33829
G1 X142.500 Y87.691 E46.44940
G1 X144.877 Y88.088 E46.51634
G1 X146.995 Y89.237 E46.58328 F1800.000
G1 X148.625 Y91.012 E46.65022
G1 X149.589 Y93.221 E46.71716
G1 X149.809 Y95.000 E46.76696
G1 X149.809 Y135.000 E47.87807
G1 X149.412 Y137.377 E47.94501
G1 X148.263 Y139.495 E48.01195
G1 X146.488 Y141.125 E48.07889
G1 X144.279 Y142.089 E48.14583
G1 X142.500 Y142.309 E48.19563
G1 X102.500 Y142.309 E49.30674
G1 X100.123 Y141.912 E49.37368
G1 X98.005 Y140.763 E49.44062
G1 X96.375 Y138.988 E49.50756
G1 X95.411 Y136.779 E49.57450
G1 X95.191 Y135.000 E49.62431
G1 X95.191 Y95.000 E50.73542
G1 X95.588 Y92.623 E50.80236
G1 X96.737 Y90.505 E50.86930
G1 X97.441 Y89.858 E50.89585
G1 X97.911 Y90.297 F4800.000
G1 X99.140 Y89.256 E50.94058 F1800.000
G1 X101.295 Y88.456 E51.00443
G1 X102.500 Y88.346 E51.03806
G1 X142.500 Y88.346 E52.14917
G1 X144.764 Y88.742 E52.21302
G1 X146.758 Y89.886 E52.27687 F1800.000
G1 X148.244 Y91.640 E52.34072
G1 X149.044 Y93.795 E52.40457
G1 X149.154 Y95.000 E52.43819
G1 X149.154 Y135.000 E53.54930
G1 X148.758 Y137.264 E53.61315
G1 X147.614 Y139.258 E53.67700
G1 X145.860 Y140.744 E53.74085
G1 X143.705 Y141.544 E53.80470
G1 X142.500 Y141.654 E53.83833
G1 X102.500 Y141.654 E54.94944
G1 X100.236 Y141.258 E55.01329
G1 X98.242 Y140.114 E55.07714
G1 X96.756 Y138.360 E55.14099
G1 X95.956 Y136.205 E55.20484
G1 X95.846 Y135.000 E55.23846
G1 X95.846 Y95.000 E56.34957
G1 X96.242 Y92.736 E56.41342
G1 X97.386 Y90.742 E56.47727
G1 X97.854 Y90.346 E56.49430
G1 E54.49430 F2400.00000
G92 E0
G1 X137.950 Y128.450 F4800.000
G1 E2.00000 F2400.00000
G1 X127.050 Y128.450 E2.30275 F1800.000
G1 X127.050 Y124.050 E2.42495
G1 X137.950 Y124.050 E2.72770
G1 X137.950 Y128.375 E2.84782
G1 X137.295 Y127.795 F4800.000
G1 X127.705 Y127.795 E3.11421 F1800.000
G1 X127.705 Y124.705 E3.20005
G1 X137.295 Y124.705 E3.46644
G1 X137.295 Y127.720 E3.55019
G1 X136.750 Y127.250 F4800.000
G1 X128.250 Y127.250 E3.70734 F1800.000
G1 X128.250 Y125.250 E3.74432
G1 X136.750 Y125.250 E3.90147
G1 X136.750 Y127.175 E3.93706
G1 X136.750 Y127.750 F4800.000
G1 E1.93706 F2400.00000
G92 E0
G1 X137.950 Y123.450 F4800.000
G1 E2.00000 F2400.00000
G1 X127.050 Y123.450 E2.30275 F1800.000
G1 X127.050 Y119.050 E2.42495
G1 X137.950 Y119.050 E2.72770
G1 X137.950 Y123.375 E2.84782
G1 X137.295 Y122.795 F4800.000
G1 X127.705 Y122.795 E3.11421 F1800.000
G1 X127.705 Y119.705 E3.20005
G1 X137.295 Y119.705 E3.46644
G1 X137.295 Y122.720 E3.55019
G1 X136.750 Y122.250 F4800.000
G1 X128.250 Y122.250 E3.70734 F1800.000
G1 X128.250 Y120.250 E3.74432
G1 X136.750 Y120.250 E3.90147
G1 X136.750 Y122.175 E3.93706
G1 X136.750 Y122.750 F4800.000
G1 E1.93706 F2400.00000
G92 E0
G1 X137.950 Y109.450 F4800.000
G1 E2.00000 F2400.00000
G1 X127.050 Y109.450 E2.30275 F1800.000
G1 X127.050 Y105.050 E2.42495
G1 X137.950 Y105.050 E2.72770
G1 X137.950 Y109.375 E2.84782
G1 X137.295 Y108.795 F4800.000
G1 X127.705 Y108.795 E3.11421 F1800.000
G1 X127.705 Y105.705 E3.20005
G1 X137.295 Y105.705 E3.46644
G1 X137.295 Y108.720 E3.55019
G1 X136.750 Y108.250 F4800.000
G1 X128.250 Y108.250 E3.70734 F1800.000
G1 X128.250 Y106.250 E3.74432
G1 X136.750 Y106.250 E3.90147
G1 X136.750 Y108.175 E3.93706
G1 X136.750 Y108.750 F4800.000
G1 E1.93706 F2400.00000
G92 E0
G1 X119.950 Y109.450 F4800.000
G1 E2.00000 F2400.00000
G1 X109.050 Y109.450 E2.30275 F1800.000
G1 X109.050 Y105.050 E2.42495
G1 X119.950 Y105.050 E2.72770
G1 X119.950 Y109.375 E2.84782
G1 X119.295 Y108.795 F4800.000
G1 X109.705 Y108.795 E3.11421 F1800.000
G1 X109.705 Y105.705 E3.20005
G1 X119.295 Y105.705 E3.46644
G1 X119.295 Y108.720 E3.55019
G1 X118.750 Y108.250 F4800.000
G1 X110.250 Y108.250 E3.70734 F1800.000
G1 X110.250 Y106.250 E3.74432
G1 X118.750 Y106.250 E3.90147
G1 X118.750 Y108.175 E3.93706
G1 X118.750 Y108.750 F4800.000
G1 E1.93706 F2400.00000
G92 E0
G1 X119.950 Y119.050 F4800.000
G1 E2.00000 F2400.00000
G1 X119.950 Y123.450 E2.12220 F1800.000
G1 X109.050 Y123.450 E2.42495
G1 X109.050 Y119.050 E2.54715
G1 X119.875 Y119.050 E2.84782
G1 X119.295 Y119.705 F4800.000
G1 X119.295 Y122.795 E2.93365 F1800.000
G1 X109.705 Y122.795 E3.20005
G1 X109.705 Y119.705 E3.28588
G1 X119.220 Y119.705 E3.55019
G1 X118.750 Y120.250 F4800.000
G1 X118.750 Y122.250 E3.58717 F1800.000
G1 X110.250 Y122.250 E3.74432
G1 X110.250 Y120.250 E3.78130
G1 X118.675 Y120.250 E3.93706
G1 X119.250 Y120.250 F4800.000
G1 E1.93706 F2400.00000
G92 E0
G1 X119.950 Y124.050 F4800.000
G1 E2.00000 F2400.00000
G1 X119.950 Y128.450 E2.12220 F1800.000
G1 X109.050 Y128.450 E2.42495
G1 X109.050 Y124.050 E2.54715
G1 X119.875 Y124.050 E2.84782
G1 X119.295 Y124.705 F4800.000
G1 X119.295 Y127.795 E2.93365 F1800.000
G1 X109.705 Y127.795 E3.20005
G1 X109.705 Y124.705 E3.28588
G1 X119.220 Y124.705 E3.55019
G1 X118.750 Y125.250 F4800.000
G1 X118.750 Y127.250 E3.58717 F1800.000
G1 X110.250 Y127.250 E3.74432
G1 X110.250 Y125.250 E3.78130
G1 X118.675 Y125.250 E3.93706
G1 X119.250 Y125.250 F4800.000
G1 E1.93706 F2400.00000
G92 E0
G1 X103.950 Y133.550 F4800.000
G1 E2.00000 F2400.00000
G1 X103.950 Y96.450 E3.03058 F1800.000
G1 X141.050 Y96.450 E4.06116
G1 X141.050 Y133.550 E5.09174
G1 X104.025 Y133.550 E6.12024
G1 X103.295 Y134.205 F4800.000
G1 X103.295 Y95.795 E7.18718 F1800.000
G1 X141.705 Y95.795 E8.25412
G1 X141.705 Y134.205 E9.32106
G1 X103.370 Y134.205 E10.38592
G1 X102.750 Y134.750 F4800.000
G1 X102.750 Y95.250 E11.11621 F1800.000
G1 X142.250 Y95.250 E11.84649
G1 X142.250 Y134.750 E12.57678
G1 X102.825 Y134.750 E13.30568
G1 X103.000 Y134.317 F4800.000
G1 E11.30568 F2400.00000
G92 E0
G1 X104.665 Y133.153 F4800.000
G1 E2.00000 F2400.00000
G1 X104.347 Y132.835 E2.01260 F1800.000
G1 X104.347 Y131.901 E2.03882
G1 X105.599 Y133.153 E2.08851
G1 X106.534 Y133.153 E2.11473
G1 X104.347 Y130.966 E2.20150
G1 X104.347 Y130.031 E2.22772
G1 X107.469 Y133.153 E2.35158
G1 X108.404 Y133.153 E2.37780
G1 X104.347 Y129.096 E2.53874
G1 X104.347 Y128.162 E2.56496
G1 X109.338 Y133.153 E2.76298
G1 X110.273 Y133.153 E2.78921
G1 X104.347 Y127.227 E3.02431
G1 X104.347 Y126.292 E3.05054
G1 X111.208 Y133.153 E3.32273
G1 X112.143 Y133.153 E3.34895
G1 X104.347 Y125.357 E3.65823
G1 X104.347 Y124.422 E3.68445
G1 X113.077 Y133.153 E4.03081
G1 X114.012 Y133.153 E4.05703
G1 X109.706 Y128.847 E4.22786
G1 X110.641 Y128.847 E4.25408
G1 X114.947 Y133.153 E4.42491
G1 X115.882 Y133.153 E4.45113
G1 X111.576 Y128.847 E4.62196
G1 X112.511 Y128.847 E4.64818
G1 X116.817 Y133.153 E4.81901
G1 X117.751 Y133.153 E4.84523
G1 X113.445 Y128.847 E5.01606
G1 X114.380 Y128.847 E5.04229
G1 X118.686 Y133.153 E5.21311
G1 X119.621 Y133.153 E5.23934
G1 X115.315 Y128.847 E5.41016
G1 X116.250 Y128.847 E5.43639
G1 X120.556 Y133.153 E5.60721
G1 X121.490 Y133.153 E5.63344
G1 X117.184 Y128.847 E5.80427
G1 X118.119 Y128.847 E5.83049
G1 X122.425 Y133.153 E6.00132
G1 X123.360 Y133.153 E6.02754
G1 X119.054 Y128.847 E6.19837
G1 X119.989 Y128.847 E6.22459
G1 X124.295 Y133.153 E6.39542
G1 X125.229 Y133.153 E6.42164
G1 X120.347 Y128.271 E6.61534
G1 X120.347 Y127.336 E6.64156
G1 X126.164 Y133.153 E6.87234
G1 X127.099 Y133.153 E6.89856
G1 X120.347 Y126.401 E7.16643
G1 X120.347 Y125.466 E7.19265
G1 X128.034 Y133.153 E7.49760
G1 X128.968 Y133.153 E7.52382
G1 X120.347 Y124.532 E7.86585
G1 E5.86585 F2400.00000
G92 E0
G1 X120.347 Y119.858 F4800.000
G1 E2.00000 F2400.00000
G1 X126.653 Y126.164 E2.25017 F1800.000
G1 X126.653 Y127.098 E2.27640
G1 X120.347 Y120.793 E2.52657
G1 X120.347 Y121.727 E2.55279
G1 X126.653 Y128.033 E2.80296
G1 X126.532 Y128.847 E2.82604
G1 X130.838 Y133.153 E2.99687
G1 X129.903 Y133.153 E3.02310
G1 X120.347 Y123.597 E3.40221
G1 X120.347 Y122.662 E3.42844
G1 X126.653 Y128.968 E3.67861
G1 X127.467 Y128.847 E3.70169
G1 X131.773 Y133.153 E3.87252
G1 X132.707 Y133.153 E3.89874
G1 X128.402 Y128.847 E4.06957
G1 X129.336 Y128.847 E4.09579
G1 X133.642 Y133.153 E4.26662
G1 X134.577 Y133.153 E4.29284
G1 X130.271 Y128.847 E4.46367
G1 X131.206 Y128.847 E4.48989
G1 X135.512 Y133.153 E4.66072
G1 X136.447 Y133.153 E4.68694
G1 X132.141 Y128.847 E4.85777
G1 X133.075 Y128.847 E4.88399
G1 X137.381 Y133.153 E5.05482
G1 X138.316 Y133.153 E5.08104
G1 X134.010 Y128.847 E5.25187
G1 X134.945 Y128.847 E5.27809
G1 X139.251 Y133.153 E5.44892
G1 X140.186 Y133.153 E5.47515
G1 X135.880 Y128.847 E5.64597
G1 X136.814 Y128.847 E5.67220
G1 X140.653 Y132.686 E5.82448
G1 X140.653 Y131.751 E5.85071
G1 X137.749 Y128.847 E5.96591
G1 X138.347 Y128.510 F4800.000
G1 X140.653 Y130.816 E6.05739 F1800.000
G1 X140.653 Y129.881 E6.08361
G1 X138.347 Y127.575 E6.17510
G1 X138.347 Y126.641 E6.20132
G1 X140.653 Y128.947 E6.29280
G1 X140.653 Y128.012 E6.31903
G1 X138.347 Y125.706 E6.41051
G1 X138.347 Y124.771 E6.43673
G1 X140.653 Y127.077 E6.52821
G1 X140.653 Y126.142 E6.55444
G1 X138.347 Y123.836 E6.64592
G1 X138.347 Y122.902 E6.67214
G1 X140.653 Y125.208 E6.76363
G1 X140.653 Y124.273 E6.78985
G1 X138.347 Y121.967 E6.88133
G1 X138.347 Y121.032 E6.90755
G1 X140.653 Y123.338 E6.99904
G1 X140.653 Y122.403 E7.02526
G1 X138.347 Y120.097 E7.11674
G1 X138.347 Y119.163 F4800.000
G1 X140.653 Y121.468 E7.20823 F1800.000
G1 X140.653 Y120.534 E7.23445
G1 X129.966 Y109.847 E7.65842
G1 X130.901 Y109.847 E7.68464
G1 X140.653 Y119.599 E8.07152
G1 X140.653 Y118.664 E8.09775
G1 X131.836 Y109.847 E8.44755
G1 X132.771 Y109.847 E8.47377
